X:1
T:Aria di Ruggiero
T:Aria di Ruggiero
T:Raffaello Rontani
T:Source : Le varie Musiche a uno e due voci---Roma---G.B.Robletti---1622. Editor : André Vierendeels (26/05/16).
T:Notes : Original clefs : C1, F4 Editorial accidentals above the staff m 57 editorial correction because error in the original print
T:©
T:©
T:©
T:©
T:©
T:©
T:©
T:©
T:©
C:Raffaello Rontani
Z:©
%%score 1 2
L:1/8
Q:1/4=90
M:4/4
K:C
V:1 treble nm="Soprano" snm="S"
V:2 bass nm="MusicXML Part"
V:1
 G6 GG | G8 | G4 z4 | G6 GG | G4 G4 | G8 | A8 | z4 z2 AA | A6 AA | A8 | A8 | z4 A4- | A4 A4- | %13
w: Quan- to di-|ner|so|a- ri ve-|der- v'io|ve-|gno,|so- li-|ta- rie sel-|vet-|te|om-|* bro-|
 A4 A4 | A8 | G8 | z4 z2 DD | D6 DD | D4 D3 ^C | D8 | z4 A4- | A4 A4- | A4 A4 | A8 | G8 || %25
w: * se|pian-|te,|so- li-|ta- ri- e|sel- ve- te|_|om-|* bro-|* se|pian-|te.|
"^SECONDA PARTE" B6 dG | A6 d/c/B/A/ | B8 | B8 | z4 B4- | B2 B2 A4 | %31
w: Gia fui d'a-|mor se- * * *|gua-|ce|ho-|* ra dis-|
 e/d/c/B/ c/A/d/c/ B/c/A/B/ G2 | A8 | z4 z2 A2 | d4 A/^F/G/A/ B/c/d- | %35
w: de- * * * * * * * * * * * *|gno,|tra|voi gia _ _ _ _ _ _|
 d c/B/ c/A/d/c/ d/B/c/B/ A/A/A/G/- | A8 | z4 d4- | d2 BB B4- | B2 e/d/c/B/ c/G/A/B/ c/B/d/G/ | %40
w: _ lie- * * * * * * * * * * * * to,|_|hor|_ mo- ri- bon-|* do'a- * * * * * * * * * * *|
 A8 | G8 | z4 z2 ^F2 | ^F2 A/F/G/A/ D2 d/B/c/d/ | GA/B/ Ec/B/ TA3 G- | A8 | z4 z2 A2- | %47
w: man-|te,|tra|voi gia _ _ _ _ lie- * * *|* * * * * * * to,|_|hor|
 A2 GG G2 D2 | E/F/D/E/ C/D/E/F/ GA/B/ c/B/d/G/ | A8 | G8 ||"^TERZA PARTE" z2 G2 B4- | %52
w: _ mo- ri- bon- do'a-|man- * * * * * * * * * * * * * *||te|E poi|
 B2 A2 A2 d/A/d/c/ | B8 | B8 | z4 G/D/E/F/ G/A/B/c/ | d/A/B/c/ d/B/c/d/ A/B/c/d/ cd | e3 A A3 G- | %58
w: _ che que- sta _ _ _|lu-|ce|||bor- ro'e sde- gno,|
 A8 | z2 ^F2 A4 | ^F6 FF | G<^F G<F TF3 E- | ^F8 | z4 A4- | A4 G2 F2 | %65
w: _|sa- ro|tra le vo-|stre'om- * * * * bre,|_|un|_ om- bra'er-|
 EF/G/ Cc/d/ e/f/d/e/ c/B/c/G/ | A8 | G8 | z2 D2 ^F4 | A6 AA |"^-natural" GE/F/ GA/B/ EG T^F>E- | %71
w: ran- * * * * * * * * * * * * *||te,|sa- ro|tra le vo-|stre'om _ _ _ _ _ _ _ _ _|
 ^F8 | z4 A4- | A4 G2 F2 | E/F/G/A/ B/G/c/d/ e/d/e/d/ c/B/A/G/ | A8 | G8 || %77
w: bre,|un|_ om- bra'er-|ran- * * * * * * * * * * * * * * *||te.|
"^QUARTA PARTE" z2 d2 B4 | z2 A3 G A2 | B8 | B8 | z4 B<A B/A/B/c/ | d6 A2 | c<B c<B TA3 G- | A8 | %85
w: Se si|ron- pa- s'il|no-|do|a _ _ _ _ _|que- sta|do- * * * * glia,|_|
 z8 | A4 G3 ^F | G6 E2 | ^F8 | z4 d4- | de/d/ cd/c/ BA TAG/F/ | EF/G/ C/D/E/F/ G/A/B/c/ TB/B/A/G/ | %92
w: |e se lo|strin se'a-|mor|mor-||* * * * * * * * * * * * * te lo|
 A8 | G8 | z8 | z4 d4- | d2 cB c3 A | A8 | z4 A4- | AB/A/ G3 ^F TFE/D/ | E>c Bc/B/ TA3 G/G/ | A8 | %102
w: sco-|glia,||e|_ se lo strin- se'a-|mor|mor-||* * * * * * te lo|sco-|
 G8 |] %103
w: glia.|
V:2
 G,,8 | C,4 D,4 | G,,8 | G,8 | G,4 F,4 | E,8 | D,8 | D,8 | D,4 D,4 | E,8 | D,8 | D,8 | B,,8 | %13
 C,4 E,4 | D,8 | G,,8 | D,8 | D,4 D,4 | E,8 | D,8 | D,8 | B,,8 | C,4 E,4 | D,8 | G,,8 || G,,8 | %26
 C,4 D,4 | G,,8 | G,,8 | G,8 | G,4 F,4 | E,8 | D,8 | D,8 | D,4 D,4 | E,8 | D,8 | D,8 | B,,8 | %39
 C,4 E,4 | D,8 | G,,8 | D,8 | D,4 D,4 | E,8 | D,8 | D,8 | B,,8 | C,4 E,4 | D,8 | G,,8 || G,,8 | %52
 C,4 D,4 | G,,8 | G,,8 | G,8 | G,4 F,4 | E,8 | D,8 | D,8 | D,8 | E,8 | D,8 | D,8 | B,,8 | C,6 E,2 | %66
 D,8 | G,,8 | D,8 |"^-natural" D,8 | E,8 | D,8 | D,8 | B,,8 | C,4 E,4 | D,8 | G,,8 || G,,8 | %78
 C,4 D,4 | G,,8 | G,,8 | G,8 | G,4 F,4 | E,8 | D,8 | D,8 | D,4 D,4 | E,8 | D,8 | D,8 | B,,8 | %91
 C,6 E,2 | D,8 | G,,8 | D,8 | D,4 D,4 | E,8 | D,8 | D,8 | B,,8 | C,6 E,2 | D,8 | G,,8 |] %103

